source/images/icons/icon-editorial/permis-animal-generique2.svg

<?xml version="1.0" encoding="UTF-8"?>
<svg width="80px" height="80px" viewBox="0 0 80 80" version="1.1" xmlns="http://www.w3.org/2000/svg" xmlns:xlink="http://www.w3.org/1999/xlink">
    <!-- Generator: Sketch 55.2 (78181) - https://sketchapp.com -->
    <title>Illustrative Icons/Permis-Animal generique</title>
    <desc>Created with Sketch.</desc>
    <g id="Illustrative-Icons/Permis-Animal-generique" stroke="none" stroke-width="1" fill="none" fill-rule="evenodd">
        <path d="M53.6666667,33.6666667 L63.6666667,33.6666667 C64.5871412,33.6666667 65.3333334,32.9204746 65.3333334,32 C65.3333334,31.0795254 64.5871412,30.3333334 63.6666667,30.3333334 L53.6666667,30.3333334 C52.7461922,30.3333334 52.0000001,31.0795254 52.0000001,32 C52.0000001,32.9204746 52.7461922,33.6666667 53.6666667,33.6666667 M53.6666667,42 L60.3333334,42 C61.2538079,42 62.0000001,41.2538079 62.0000001,40.3333334 C62.0000001,39.4128589 61.2538079,38.6666667 60.3333334,38.6666667 L53.6666667,38.6666667 C52.7461922,38.6666667 52.0000001,39.4128589 52.0000001,40.3333334 C52.0000001,41.2538079 52.7461922,42 53.6666667,42 M53.6666667,50.3333334 L62.0000001,50.3333334 C62.9204746,50.3333334 63.6666667,49.5871412 63.6666667,48.6666667 C63.6666667,47.7461922 62.9204746,47 62.0000001,47 L53.6666667,47 C52.7461922,47 52.0000001,47.7461922 52.0000001,48.6666667 C52.0000001,49.5871412 52.7461922,50.3333334 53.6666667,50.3333334 M10.3333333,18.6666667 C10.3333333,19.5871413 9.58714125,20.3333333 8.66666667,20.3333333 C7.74619208,20.3333333 7,19.5871413 7,18.6666667 C7,17.7461921 7.74619208,17 8.66666667,17 C9.58714125,17 10.3333333,17.7461921 10.3333333,18.6666667 M68.6666667,17 C71.4246714,17.008237 73.6584297,19.2419953 73.6666667,22 L73.6666667,58.6666667 C73.6584297,61.4246714 71.4246714,63.6584297 68.6666667,63.6666667 L12,63.6666667 C9.24199534,63.6584297 7.008237,61.4246714 7,58.6666667 L7,28.6666667 C7,27.7461921 7.74619208,27 8.66666667,27 C9.58714125,27 10.3333333,27.7461921 10.3333333,28.6666667 L10.3333333,58.6666667 C10.3333333,59.5871412 11.0795254,60.3333334 12,60.3333334 L68.6666667,60.3333334 C69.5871412,60.3333334 70.3333334,59.5871412 70.3333334,58.6666667 L70.3333334,22 C70.3333334,21.0795254 69.5871412,20.3333333 68.6666667,20.3333333 L15.35,20.3333333 C14.4295254,20.3333333 13.6833333,19.5871413 13.6833333,18.6666667 C13.6833333,17.7461921 14.4295254,17 15.35,17 L68.6666667,17 Z M35.8833334,51.6833334 C35.1333334,51.6833334 34.3166667,51.5 33.5,51.3 C32.55,51.0833334 31.4833334,50.8333334 30.4,50.8333334 C29.3166667,50.8333334 28.2333334,51.0833334 27.2666667,51.3 C25.5833334,51.6833334 24,52.0333334 22.7333334,51.0166667 C21.5166667,50.0333334 21.5166667,48.3833334 21.5166667,47.8333334 C21.5166667,44.6953505 23.1907605,41.7957349 25.9083334,40.2267434 C28.6259062,38.657752 31.9740939,38.657752 34.6916667,40.2267434 C37.4092395,41.7957349 39.0833334,44.6953505 39.0833334,47.8333334 C39.0833334,48.3833334 39.0833334,50.0666667 37.8666667,51.0333334 C37.3012849,51.4740959 36.5999245,51.7039535 35.8833334,51.6833334 Z M30.2833334,42.3833334 C27.2764227,42.3906629 24.8406629,44.8264227 24.8332318,47.8333334 C24.8320355,48.0061322 24.8431754,48.1788005 24.8666667,48.35 C25.4280515,48.2856454 25.984744,48.1854407 26.5333334,48.05 C27.6166667,47.8166667 28.95,47.5166667 30.4,47.5166667 C31.85,47.5166667 33.1833334,47.8166667 34.25,48.0666667 C34.7268179,48.1918437 35.2111344,48.2864804 35.7,48.35 C35.7229699,48.1843364 35.7341092,48.0172467 35.7333713,47.85 C35.7278722,44.839606 33.2936967,42.3979865 30.2833334,42.3833334 Z M18.6166667,42.3333334 C20.4576159,42.3333334 21.95,40.8409492 21.95,39 C21.95,37.1590509 20.4576159,35.6666667 18.6166667,35.6666667 C16.7757175,35.6666667 15.2833333,37.1590509 15.2833333,39 C15.2888247,40.8386699 16.7779969,42.327842 18.6166667,42.3333334 L18.6166667,42.3333334 Z M41.8833334,42.3333334 C43.7242825,42.3333334 45.2166667,40.8409492 45.2166667,39 C45.2166667,37.1590509 43.7242825,35.6666667 41.8833334,35.6666667 C40.0423842,35.6666667 38.55,37.1590509 38.55,39 C38.5554914,40.8386699 40.0446635,42.327842 41.8833334,42.3333334 L41.8833334,42.3333334 Z M25.3833334,37.0333334 C27.2242825,37.0333334 28.7166667,35.5409492 28.7166667,33.7 C28.7166667,31.8590509 27.2242825,30.3666667 25.3833334,30.3666667 C23.5423842,30.3666667 22.05,31.8590509 22.05,33.7 C22.0554914,35.5386699 23.5446636,37.027842 25.3833334,37.0333334 L25.3833334,37.0333334 Z M35.1666667,37.0333334 C37.0076159,37.0333334 38.5,35.5409492 38.5,33.7 C38.5,31.8590509 37.0076159,30.3666667 35.1666667,30.3666667 C33.3257175,30.3666667 31.8333334,31.8590509 31.8333334,33.7 C31.8388247,35.5386699 33.3279969,37.027842 35.1666667,37.0333334 L35.1666667,37.0333334 Z" id="Shape-color" fill="#ADB5BD"></path>
    </g>
</svg>

<svg width="80" height="80">
    <title>
        Illustrative Icons/Permis-Animal generique
    </title>
    <path d="M53.667 33.667h10a1.667 1.667 0 0 0 0-3.334h-10a1.667 1.667 0 1 0 0 3.334m0 8.333h6.666a1.667 1.667 0 0 0 0-3.333h-6.666a1.667 1.667 0 0 0 0 3.333m0 8.333H62A1.667 1.667 0 0 0 62 47h-8.333a1.667 1.667 0 0 0 0 3.333M10.333 18.667a1.667 1.667 0 1 1-3.333 0 1.667 1.667 0 0 1 3.333 0M68.667 17a5.015 5.015 0 0 1 5 5v36.667a5.015 5.015 0 0 1-5 5H12a5.015 5.015 0 0 1-5-5v-30a1.667 1.667 0 1 1 3.333 0v30c0 .92.747 1.666 1.667 1.666h56.667c.92 0 1.666-.746 1.666-1.666V22c0-.92-.746-1.667-1.666-1.667H15.35a1.667 1.667 0 1 1 0-3.333h53.317zM35.883 51.683c-.75 0-1.566-.183-2.383-.383-.95-.217-2.017-.467-3.1-.467-1.083 0-2.167.25-3.133.467-1.684.383-3.267.733-4.534-.283-1.216-.984-1.216-2.634-1.216-3.184a8.783 8.783 0 1 1 17.566 0c0 .55 0 2.234-1.216 3.2-.566.441-1.267.671-1.984.65zm-5.6-9.3a5.463 5.463 0 0 0-5.45 5.45c-.001.173.01.346.034.517a13.248 13.248 0 0 0 1.666-.3c1.084-.233 2.417-.533 3.867-.533 1.45 0 2.783.3 3.85.55.477.125.961.22 1.45.283.023-.166.034-.333.033-.5a5.477 5.477 0 0 0-5.45-5.467zm-11.666-.05A3.333 3.333 0 1 0 15.283 39a3.343 3.343 0 0 0 3.334 3.333zm23.266 0A3.333 3.333 0 1 0 38.55 39a3.343 3.343 0 0 0 3.333 3.333zm-16.5-5.3A3.333 3.333 0 1 0 22.05 33.7a3.343 3.343 0 0 0 3.333 3.333zm9.784 0a3.333 3.333 0 1 0-3.334-3.333 3.343 3.343 0 0 0 3.334 3.333z" fill="#ADB5BD" fill-rule="evenodd"/>
</svg>
